public/static/icons/network/near.svg

<svg width="6" height="6" viewBox="0 0 6 6" fill="none" xmlns="http://www.w3.org/2000/svg">
<path d="M4.816 0.304958L3.5615 2.16692C3.54816 2.18695 3.54049 2.21026 3.53931 2.23434C3.53812 2.25842 3.54346 2.28237 3.55477 2.30363C3.56607 2.32489 3.58291 2.34265 3.60347 2.35501C3.62403 2.36738 3.64755 2.37387 3.6715 2.37381C3.70373 2.37407 3.73497 2.36264 3.7595 2.34159L4.9945 1.27093C5.00175 1.26451 5.01069 1.26035 5.02024 1.25894C5.02979 1.25752 5.03954 1.25893 5.04832 1.26297C5.05709 1.26702 5.06452 1.27353 5.0697 1.28173C5.07487 1.28993 5.07758 1.29946 5.0775 1.30918V4.66062C5.07764 4.671 5.07453 4.68116 5.06861 4.68965C5.06268 4.69815 5.05425 4.70454 5.0445 4.70793C5.0349 4.71136 5.02448 4.71175 5.01465 4.70905C5.00482 4.70635 4.99605 4.70069 4.9895 4.69283L1.257 0.227439C1.19688 0.156273 1.12208 0.0991448 1.0378 0.0600269C0.953527 0.0209089 0.861801 0.000740306 0.769 0.000922997H0.639C0.469 0.000922997 0.3065 0.0683744 0.1865 0.188176C0.0665001 0.307978 0 0.470063 0 0.639699V5.3603C0 5.52994 0.0675 5.69252 0.187 5.81233C0.255434 5.88077 0.338321 5.9328 0.429491 5.96454C0.520662 5.99628 0.617768 6.00691 0.713583 5.99564C0.809398 5.98436 0.901454 5.95148 0.9829 5.89944C1.06435 5.8474 1.13308 5.77753 1.184 5.69504L2.4385 3.83308C2.45197 3.81304 2.45976 3.78969 2.46101 3.76553C2.46227 3.74137 2.45695 3.71732 2.44563 3.69598C2.43431 3.67464 2.41742 3.65681 2.39678 3.64443C2.37614 3.63204 2.35253 3.62556 2.3285 3.62569C2.29627 3.62542 2.26503 3.63686 2.2405 3.6579L1.0055 4.72857C1.00013 4.73337 0.993796 4.73694 0.986931 4.73905C0.980065 4.74117 0.972828 4.74177 0.965713 4.74081C0.958597 4.73985 0.951768 4.73737 0.945692 4.73352C0.939616 4.72967 0.934435 4.72455 0.9305 4.7185C0.925209 4.71026 0.922428 4.70063 0.9225 4.69082V1.33838C0.922431 1.32801 0.925573 1.31789 0.931488 1.30941C0.937402 1.30093 0.945796 1.29451 0.9555 1.29106C0.965104 1.28764 0.975518 1.28725 0.985347 1.28995C0.995177 1.29264 1.00395 1.2983 1.0105 1.30616L4.742 5.77306C4.8021 5.84426 4.8769 5.9014 4.96118 5.94052C5.04546 5.97964 5.13719 5.9998 5.23 5.99958H5.36C5.48619 5.99955 5.60959 5.96211 5.71478 5.89193C5.81997 5.82174 5.9023 5.72193 5.9515 5.60494C5.98347 5.52739 5.99995 5.44426 6 5.3603V0.639699C6 0.470063 5.9325 0.307475 5.813 0.187673C5.74457 0.119225 5.66168 0.0671961 5.57051 0.0354588C5.47934 0.00372152 5.38223 -0.006907 5.28642 0.00436448C5.1906 0.015636 5.09855 0.0485171 5.0171 0.100561C4.93565 0.152604 4.86692 0.22247 4.816 0.304958Z" fill="white"/>
</svg>

<svg xmlns="http://www.w3.org/2000/svg" width="6" height="6" fill="none"><path fill="#fff" d="M4.816.305 3.562 2.167a.133.133 0 0 0 .198.175L4.995 1.27a.05.05 0 0 1 .082.038v3.352a.05.05 0 0 1-.088.032L1.257.227A.64.64 0 0 0 .769.001h-.13A.64.64 0 0 0 0 .64v4.72a.64.64 0 0 0 1.184.335l1.254-1.862a.133.133 0 0 0-.198-.175l-1.235 1.07a.05.05 0 0 1-.082-.037V1.338a.05.05 0 0 1 .032-.047.05.05 0 0 1 .055.015l3.732 4.467A.639.639 0 0 0 5.23 6h.13A.64.64 0 0 0 6 5.36V.64A.64.64 0 0 0 4.816.305Z"/></svg>
